images/icons/phone.svg

<svg width="32" height="32" viewBox="0 0 32 32" fill="none" xmlns="http://www.w3.org/2000/svg">
<g clip-path="url(#clip0)">
<path d="M31.129 23.4848L26.6633 19.0191C25.0684 17.4242 22.3571 18.0622 21.7192 20.1355C21.2407 21.571 19.6458 22.3684 18.2104 22.0494C15.0206 21.2519 10.7144 17.1052 9.91698 13.7559C9.43851 12.3205 10.3954 10.7256 11.8308 10.2472C13.9042 9.60922 14.5422 6.89791 12.9473 5.30301L8.48157 0.837318C7.20566 -0.279106 5.29179 -0.279106 4.17537 0.837318L1.14508 3.86761C-1.88522 7.05739 1.46405 15.5103 8.96004 23.0063C16.456 30.5023 24.909 34.0111 28.0987 30.8213L31.129 27.791C32.2455 26.5151 32.2455 24.6012 31.129 23.4848Z" fill="#AC9374"/>
</g>
<defs>
<clipPath id="clip0">
<rect width="32" height="32" fill="white"/>
</clipPath>
</defs>
</svg>

<svg width="32" height="32" fill="none" xmlns="http://www.w3.org/2000/svg"><g clip-path="url(#clip0)"><path d="M31.129 23.485l-4.466-4.466c-1.595-1.595-4.306-.957-4.944 1.117-.478 1.435-2.073 2.232-3.509 1.913-3.19-.797-7.496-4.944-8.293-8.293-.478-1.436.478-3.03 1.914-3.509 2.073-.638 2.711-3.35 1.116-4.944L8.482.837c-1.276-1.116-3.19-1.116-4.307 0l-3.03 3.03c-3.03 3.19.32 11.643 7.815 19.14 7.496 7.495 15.949 11.004 19.139 7.814l3.03-3.03c1.116-1.276 1.116-3.19 0-4.306z" fill="#AC9374"/></g><defs><clipPath id="clip0"><path fill="#fff" d="M0 0h32v32H0z"/></clipPath></defs></svg>
